icons/cross.svg

<svg xmlns="http://www.w3.org/2000/svg" width="2048" height="2048" viewBox="0 0 2048 2048">
    <title>Cross</title>
    <path d="M320 0L0 320l704 704L0 1728l320 320 704-704 704 704 320-320-704-704 704-704L1728 0l-704 704L320 0z"
          fill-rule="evenodd"/>
</svg>

<?xml version="1.0" encoding="UTF-8" standalone="no"?>
<svg
   xmlns:dc="http://purl.org/dc/elements/1.1/"
   xmlns:cc="http://creativecommons.org/ns#"
   xmlns:rdf="http://www.w3.org/1999/02/22-rdf-syntax-ns#"
   xmlns:svg="http://www.w3.org/2000/svg"
   xmlns="http://www.w3.org/2000/svg"
   xmlns:sodipodi="http://sodipodi.sourceforge.net/DTD/sodipodi-0.dtd"
   xmlns:inkscape="http://www.inkscape.org/namespaces/inkscape"
   version="1.1"
   id="Ebene_1"
   x="0px"
   y="0px"
   width="2048"
   height="2048"
   viewBox="0 0 2048 2048"
   enable-background="new 0 0 9 5.5"
   xml:space="preserve"
   inkscape:version="0.48.4 r9939"
   sodipodi:docname="cross.svg"><sodipodi:namedview
   pagecolor="#ffffff"
   bordercolor="#666666"
   borderopacity="1"
   objecttolerance="10"
   gridtolerance="10"
   guidetolerance="10"
   inkscape:pageopacity="0"
   inkscape:pageshadow="2"
   inkscape:window-width="1280"
   inkscape:window-height="940"
   id="namedview7"
   showgrid="false"
   inkscape:zoom="0.11523438"
   inkscape:cx="1024"
   inkscape:cy="1024"
   inkscape:window-x="-8"
   inkscape:window-y="-8"
   inkscape:window-maximized="1"
   inkscape:current-layer="Ebene_1" /><metadata
   id="metadata4184"><rdf:RDF><cc:Work
       rdf:about=""><dc:format>image/svg+xml</dc:format><dc:type
         rdf:resource="http://purl.org/dc/dcmitype/StillImage" /></cc:Work></rdf:RDF></metadata><defs
   id="defs11" />
  <title
   id="title4170">Cross</title>
<path
   style="fill-rule:evenodd"
   d="M 320 0 L 0 320 L 704 1024 L 0 1728 L 320 2048 L 1024 1344 L 1728 2048 L 2048 1728 L 1344 1024 L 2048 320 L 1728 0 L 1024 704 L 320 0 z "
   id="path4188" />
</svg>
